X:95
T: ALS DIE PREUSSEN MARSCHIRTEN
N: Z0095
O: Europa, Mitteleuropa, Deutschland, Preussen
R: Sagen - Lied, Romanze, Soldaten - Lied
M: 4/4
L: 1/8
K: G
DD | G2GGGDB,G, | D4z2
B2 | A3BAGFE | D4z2
B2 | ABAGFEDC | B,DGBdz
B2 | ABAGFEDC | B,DGBdz
B2 | A3BA3B | AAdBA2z
A | e2z2edBG | D2F2G2

